packages/tokens/icons/caseStudy/size32Px.svg

<svg viewBox="0 0 32 32" fill="none" xmlns="http://www.w3.org/2000/svg" width="1em" height="1em"><path d="M21.5 2.98077V5.5C21.5 6.60457 22.3954 7.5 23.5 7.5L26 7.5M26.5 23L26.5 8.32843C26.5 7.79799 26.2893 7.28929 25.9142 6.91421L22.0858 3.08579C21.7107 2.71071 21.202 2.5 20.6716 2.5L7.5 2.5C6.39543 2.5 5.5 3.39543 5.5 4.5L5.5 27.5C5.5 28.6046 6.39543 29.5 7.5 29.5L25.5 29.5" stroke="currentColor" stroke-linecap="round"/><path d="M8.5 7.5L16.5 7.5M8.5 10.5L23.5 10.5M8.5 13.5H11.5" stroke="currentColor" stroke-linecap="round"/><circle cx="18" cy="19" r="6.5" stroke="currentColor"/><path d="M29 29.0002L23.3333 23.3335" stroke="currentColor" stroke-linecap="round" stroke-linejoin="round"/><path d="M22 24V23C22 21.8954 21.1046 21 20 21H16C14.8954 21 14 21.8954 14 23V24" stroke="currentColor"/><circle cx="18" cy="17" r="2.5" stroke="currentColor"/></svg>

<svg xmlns="http://www.w3.org/2000/svg" fill="none" viewBox="0 0 32 32" width="1em" height="1em"><path stroke="currentColor" stroke-linecap="round" d="M21.5 2.98V5.5a2 2 0 0 0 2 2H26m.5 15.5V8.328a2 2 0 0 0-.586-1.414l-3.828-3.828a2 2 0 0 0-1.414-.586H7.5a2 2 0 0 0-2 2v23a2 2 0 0 0 2 2h18m-17-22h8m-8 3h15m-15 3h3"/><circle cx="18" cy="19" r="6.5" stroke="currentColor"/><path stroke="currentColor" stroke-linecap="round" stroke-linejoin="round" d="m29 29-5.667-5.666"/><path stroke="currentColor" d="M22 24v-1a2 2 0 0 0-2-2h-4a2 2 0 0 0-2 2v1"/><circle cx="18" cy="17" r="2.5" stroke="currentColor"/></svg>
